X:3
T:Groovin' High
C:Dizzy Gillespie
L:1/8
M:C
I:linebreak $
K:Eb
"Fm" z4"E7" z2 _c=A |:"Eb" BG z2 z4 | BG z2 z4 |"Am" z =E =Ac"D7" =BA^G=E |$
"Am" GF^Fd-"D7" d2 c=A |"Eb" BG z2 z4 | BG z2 z4 |$"Gm" z D GB"C7" =AG^FD |"Gm" F^D=Ec-"C7" c2 BA |
"F7" =AF z2 z4 |$"F7" (3=AB=A F2 z4 ||1"Fm" z C FA"Bb7" GF=EC |"Fm" E^CDB-"Bb7" B2 A^F |$
"Eb" GB df-"Gm" f2 dB |"F#m" =e^c z2 z4 |"Fm" FA ce- e2 cA |$"E7" d=B z2 z2 B/^c/B/=A/ :|2
"Fm" z CFA"Bb7" GF=EC |"Fm" E^CDB-"Bb7" B2 A=E |$"Fm" F2 FG AG F2 |"Abm" A2 AB"Db7" _cB A2 |
"Eb6" e4 z4 |]

